Origami/64x64/apps/blobby.svg

<svg width="64" height="64" version="1" xmlns="http://www.w3.org/2000/svg">
 <circle cx="32" cy="33" r="28" style="opacity:.2"/>
 <circle cx="32" cy="32" r="28" style="fill:#cccccc"/>
 <path d="m28.451172 5.2304688c-0.847928 0.1064059-1.679803 0.2575487-2.501953 0.4375-1.198142 8.2707582 0.201933 17.140336 4.671875 24.93164-2.296 3.658848-5.051225 7.087916-8.265625 9.603516-6.646303-8.605838-9.005611-19.338387-7.513672-29.326172-0.941039 0.729713-1.848173 1.497845-2.6875 2.339844-0.828285 9.924661 1.945262 19.998368 8.136719 28.587891-3.558179 2.501691-7.504299 4.414438-11.652344 5.601562a28 28 0 0 0 1.4316401 2.001953c9.137959-2.910618 17.35103-8.920801 22.619141-17.666015 4.362458 4e-6 8.723693 0.914997 12.626953 2.287109-5.000724 11.694203-14.951941 19.869976-26.521484 22.648437a28 28 0 0 0 3.537109 1.5625c10.965168-3.645551 20.3241-11.93864 25.050781-23.066406 3.980713 1.87817 7.564768 4.33816 10.605469 7.185547a28 28 0 0 0 0.917969 -2.699219c-7.007346-6.17179-16.077108-9.983521-26.216797-10.203125-2.296002-3.887594-3.672468-8.004755-4.361328-12.121093 1.521094-0.171514 3.030757-0.256193 4.525391-0.259766 10.049972-0.02402 19.380722 3.674923 26.511718 9.996094-0.299526-1.399118-0.719802-2.748683-1.21875-4.060547-8.360086-6.367202-18.987552-9.505375-30.048828-7.962891-0.21414-3.200055-0.204734-6.5915365 0.353516-9.8183592z" style="opacity:.2"/>
 <path d="m28.450782 4.2296874c-0.847928 0.106406-1.679804 0.2575488-2.501954 0.4375-1.198142 8.2707586 0.203104 17.140727 4.673046 24.932031-2.296 3.658848-5.051614 7.087526-8.266014 9.603126-6.646303-8.605838-9.006002-19.338387-7.514063-29.326172-0.941039 0.7297132-1.848564 1.4986262-2.687891 2.3406252-0.828285 9.924661 1.946043 19.998367 8.1375 28.587889-3.713704 2.611038-7.847706 4.589588-12.195312 5.76133 0.4270166 0.701294 0.881955 1.38119 1.3671878 2.039844 9.3819016-2.833992 17.840733-8.924338 23.225783-17.863674 4.362458 4e-6 8.724082 0.913826 12.627342 2.285938-5.180476 12.114554-15.668456 20.47161-27.770313 22.944142 1.07005 0.644664 2.175158 1.237028 3.333205 1.736328 11.589774-3.373802 21.569532-11.917122 26.504296-23.534766 4.105596 1.937092 7.793214 4.48935 10.89375 7.451172 0.329824-0.904878 0.61368-1.829028 0.85039-2.77539-7.036634-6.285322-16.193694-10.171476-26.43867-10.39336-2.296002-3.887594-3.67247-8.005146-4.36133-12.121484 1.521094-0.171514 3.030756-0.256193 4.52539-0.259766 10.049972-0.02402 19.381504 3.675703 26.5125 9.996874-0.299526-1.399118-0.720582-2.748682-1.21953-4.060546-8.360086-6.367202-18.98677-9.504984-30.048046-7.9625-0.21414-3.200055-0.205516-6.5923178 0.352734-9.8191406z" style="fill:#4f4f4f"/>
 <path d="M 32 4 A 28 28 0 0 0 4 32 A 28 28 0 0 0 4.0175781 32.492188 A 28 28 0 0 1 32 5 A 28 28 0 0 1 59.974609 32.492188 A 28 28 0 0 0 60 32 A 28 28 0 0 0 32 4 z" style="fill:#ffffff;opacity:.2"/>
</svg>

<svg xmlns="http://www.w3.org/2000/svg" width="64" height="64" version="1">
 <circle style="opacity:0.2" cx="32" cy="33" r="28"/>
 <circle style="fill:#cccccc" cx="32" cy="32" r="28"/>
 <path style="opacity:0.2" d="M 28.451172 5.2304688 C 27.603244 5.3368747 26.771369 5.4880175 25.949219 5.6679688 C 24.751077 13.938727 26.151152 22.808305 30.621094 30.599609 C 28.325094 34.258457 25.569869 37.687525 22.355469 40.203125 C 15.709166 31.597287 13.349858 20.864738 14.841797 10.876953 C 13.900758 11.606666 12.993624 12.374798 12.154297 13.216797 C 11.326012 23.141458 14.099559 33.215165 20.291016 41.804688 C 16.732837 44.306379 12.786717 46.219126 8.6386719 47.40625 A 28 28 0 0 0 10.070312 49.408203 C 19.208271 46.497585 27.421342 40.487402 32.689453 31.742188 C 37.051911 31.742192 41.413146 32.657185 45.316406 34.029297 C 40.315682 45.7235 30.364465 53.899273 18.794922 56.677734 A 28 28 0 0 0 22.332031 58.240234 C 33.297199 54.594683 42.656131 46.301594 47.382812 35.173828 C 51.363525 37.051998 54.94758 39.511988 57.988281 42.359375 A 28 28 0 0 0 58.90625 39.660156 C 51.898904 33.488366 42.829142 29.676635 32.689453 29.457031 C 30.393451 25.569437 29.016985 21.452276 28.328125 17.335938 C 29.849219 17.164424 31.358882 17.079745 32.853516 17.076172 C 42.903488 17.052152 52.234238 20.751095 59.365234 27.072266 C 59.065708 25.673148 58.645432 24.323583 58.146484 23.011719 C 49.786398 16.644517 39.158932 13.506344 28.097656 15.048828 C 27.883516 11.848773 27.892922 8.4572915 28.451172 5.2304688 z"/>
 <path style="fill:#4f4f4f" d="m 28.450782,4.2296874 c -0.847928,0.106406 -1.679804,0.2575488 -2.501954,0.4375 -1.198142,8.2707586 0.203104,17.1407266 4.673046,24.9320306 -2.296,3.658848 -5.051614,7.087526 -8.266014,9.603126 -6.646303,-8.605838 -9.006002,-19.338387 -7.514063,-29.3261722 -0.941039,0.7297132 -1.848564,1.4986262 -2.687891,2.3406252 -0.828285,9.924661 1.946043,19.998367 8.1375,28.587889 -3.713704,2.611038 -7.847706,4.589588 -12.1953124,5.76133 0.4270166,0.701294 0.881955,1.38119 1.3671878,2.039844 9.3819016,-2.833992 17.8407326,-8.924338 23.2257826,-17.863674 4.362458,4e-6 8.724082,0.913826 12.627342,2.285938 -5.180476,12.114554 -15.668456,20.47161 -27.770313,22.944142 1.07005,0.644664 2.175158,1.237028 3.333205,1.736328 11.589774,-3.373802 21.569532,-11.917122 26.504296,-23.534766 4.105596,1.937092 7.793214,4.48935 10.89375,7.451172 0.329824,-0.904878 0.61368,-1.829028 0.85039,-2.77539 C 52.0911,32.564288 42.93404,28.678134 32.689064,28.45625 c -2.296002,-3.887594 -3.67247,-8.005146 -4.36133,-12.121484 1.521094,-0.171514 3.030756,-0.256193 4.52539,-0.259766 10.049972,-0.02402 19.381504,3.675703 26.5125,9.996874 -0.299526,-1.399118 -0.720582,-2.748682 -1.21953,-4.060546 -8.360086,-6.367202 -18.98677,-9.504984 -30.048046,-7.9625 -0.21414,-3.200055 -0.205516,-6.5923178 0.352734,-9.8191406 z"/>
 <path style="opacity:0.2;fill:#ffffff" d="M 32 4 A 28 28 0 0 0 4 32 A 28 28 0 0 0 4.0175781 32.492188 A 28 28 0 0 1 32 5 A 28 28 0 0 1 59.974609 32.492188 A 28 28 0 0 0 60 32 A 28 28 0 0 0 32 4 z"/>
</svg>
